X:1
T:Omaha, 10.10.10.10
T:Omaha, 10.10.10.10
T:Horatio William Parker, 1894
T:Public Domain Courtesy of the Cyber Hymnal™
C:Horatio William Parker, 1894
Z:Public Domain
Z:Courtesy of the Cyber Hymnal™
%%score ( 1 2 ) ( 3 4 )
L:1/8
Q:1/4=115
M:4/4
K:A
V:1 treble 
V:2 treble 
V:3 bass 
V:4 bass 
V:1
 [CA]4 [CB]2 [Cc]2 | E6 E2 | E2 [EA]2 [^DG]2 [DA]2 | (c4 B4) | [Ec]4 [Fc]3 [^^Fc] | [Gc]4 [EG]4 | %6
 [FA]3 [EG] [EG]2 [^DF]2 | [CE]6 E2 | A4 (B2 [^Ec]2) | d6 z2 B2 | [=Gc]2 [Gc]2 [Gd]2 [Ge]2 | %11
 (e4 d4) | A4 G2 A2 | c2 A2 F2 ^D2 | E4 [DB]4 | [CA]8 |] %16
V:2
 x8 | (D4 B,2) E2 | E2 x6 | E8 | x8 | x8 | x8 | x6 E2 | ^E6 x2 | F4 F4 x2 | x8 | A8 | A4 G2 A2 | %13
 c2 A2 F2 ^D2 | E4 x4 | x8 |] %16
V:3
 [A,,E,]4 [A,,E,]2 [A,,A,]2 | (A,2 G,2 F,2) [B,,G,]2 | [C,A,]2 [C,A,]2 [F,B,]2 [F,A,]2 | %3
 (A,4 G,4) | (A,2 C2) [A,C]3 [A,^D] | [G,E]4 [G,C]4 | [G,^B,]2 [G,,B,]2 [^B,,G,]2 [G,,G,]2 | %7
 [C,G,]6 [C,G,]2 | [C,A,]4 [C,A,]4 | [D,A,]4 [D,A,]4 x2 | [E,A,]2 [E,A,]2 [E,B,]2 [E,C]2 | %11
 (C4 D4) | A,4 G,2 A,2 | C2 A,2 F,2 ^D,2 | E,4 [E,G,]4 | [A,,A,]8 |] %16
V:4
 x8 | B,,6 x2 | x8 | E,8 | A,4 x4 | x8 | x8 | x8 | x8 | x10 | x8 | F,8 | A,4 G,2 A,2 | %13
 C2 A,2 F,2 ^D,2 | E,4 x4 | x8 |] %16

